X:1
T:Valencia
T:Valencia
T:Jose Padilla
T:Lucien Boyer,Jacques Charles,Eric Valentine
C:Jose Padilla
Z:All Rights Reserved
L:1/8
M:6/8
K:F
V:1 treble 
%%MIDI program 40
%%MIDI control 7 100
%%MIDI control 10 64
V:1
 c |:"F" d2 d- d3- | d6- | d3 c2 d | c2 B A2 B | A2 G F2 G | F2 E D2 C |"C7" E6- | E6- | E6 |1 %10
w: Va-|len- cia *||* land of|o- range groves and|sweet con- tent. you|called me from a-|far,|||
w: |len- cia *||* let me|hold a rose be-|tween my lips while|ro- mance croons a-|lay|||
 E3 z2 d || e2 e- e3- | e6- |"C7" e3 d2 e | d2 c B2 c | B2 A G2 A | G2 F E2 D |"F" F6- | F6- | F6 | %20
w: * Va-|len- cia *||* where a|lov- er croons his|sen- ti- ment up-|on a light gui-|tar.|||
w: ||||||||||
 F3 z2 c :|2"C7" E3 B3 || A3 G3- | G6- | G3 B2 c |"Gm7" d2 c B2 c |"C7" B2 A G2 A | %27
w: * Va|* Va-|len- cia,||* where a|trou- ba- dour, be-|neath the moon, once|
w: |||||||
"Gm7" G2 F"C7" E2 D |"F" F6- | F3- FFG ||"Dm" A2 A d2 d |"Dm" ^c3"Dm7" A3 |"Bb/D" z2 B"A7" AGB | %33
w: stole my heart a-|way.|* * In my|dreams I hear you|sing- ing|like you used to|
w: ||||||
"Dm" A3"A+" z FG |"Dm" A3"G7" d3 |"C" c2 c G2 G |"Dm7" A3"G7" =B2 B |"C" c3- c z =B | %38
w: do, in the|dusk each|sweet note bring- ing|mem- 'rys of|you, * Oh,|
w: |||||
"G7" dc =B BAG |"C" (3A/=B/A/ G2- G2 G |"G7" =B3 B2 A |"C" A G2- G2 =B |"G7" dc =B BAG | %43
w: Car- lo, my Car- lo where|are- * * you, * your|love I am|need- ing, * be-|lov- ed I wait in the|
w: |||||
"C" (3A/=B/A/ G2- G3 |"F" A2 A"G7" =B2 B |"C" c6- |"C7" c3- c2 c |:"F" d2 d- d3- | d6- | d3 c2 d | %50
w: moon- * * light *|just to hear you|sing.|* * Va-|len- cia, *||* where there's|
w: ||||yearn dear, *||* for your|
 c2 B A2 B | A2 G F2 G | F2 E D2 C |"C7" E6- | E6- | E6- |1 E3 z2 d || e2 e- e3- | e6- | %59
w: pas- sion in the|songs a lov- er|sings be- neath the|moon,|||* Va-|len- cia, *||
w: Span- ish ser- e-|nade to soft- ly|charm my heart a-|new,-||||||
"C7" e3 d2 e | d2 c B2 c | B2 A G2 A | G2 F E2 D |"F" F6- | F6- | F6- | F3 z2 c :|2"C7" E3 B3 || %68
w: * I am|wait- ing in my|gar- den for a|lov'd one to come|soon.|||* I|* Va-|
w: |||||||||
 A3 G3- | G6- | G3 B2 c |"Gm7" d2 c B2 c |"C7" B2 A G2 A |"Gm7" G2 F"C7" E2 D |"F" F6- | %75
w: len- cia,||* in a|scent- ed o- range|grove I'm yearn- ing|for the love of|you.-|
w: |||||||
 F3- F z2 |] %76
w: |
w: |

